svg/color/duk+.svg

<?xml version="1.0" encoding="UTF-8" ?>
<!DOCTYPE svg PUBLIC "-//W3C//DTD SVG 1.1//EN" "http://www.w3.org/Graphics/SVG/1.1/DTD/svg11.dtd">
<svg width="250pt" height="250pt" viewBox="0 0 250 250" version="1.1" xmlns="http://www.w3.org/2000/svg">
<g id="#f9f8f9ff">
<path fill="#f9f8f9" opacity="1.00" d=" M 0.00 0.00 L 114.42 0.00 C 89.68 3.89 64.92 12.04 45.71 28.70 C 19.24 49.49 4.26 81.67 0.00 114.56 L 0.00 0.00 Z" />
<path fill="#f9f8f9" opacity="1.00" d=" M 135.57 0.00 L 250.00 0.00 L 250.00 112.57 C 245.55 78.34 227.89 45.63 199.87 25.08 C 181.48 10.45 158.48 3.52 135.57 0.00 Z" />
<path fill="#f9f8f9" opacity="1.00" d=" M 113.40 34.56 C 125.39 34.06 139.31 32.30 150.25 37.71 C 153.34 56.47 152.90 76.53 154.69 95.32 C 173.51 96.08 193.66 96.28 212.29 100.72 C 216.89 110.79 215.90 123.62 215.69 134.71 C 214.28 139.60 215.85 146.66 210.68 149.69 C 192.09 151.94 173.08 153.80 154.70 154.69 C 153.11 173.00 152.60 192.14 150.75 210.75 C 150.00 211.65 149.17 212.48 148.26 213.22 C 133.35 216.71 117.42 216.81 102.27 213.73 C 100.10 211.81 97.36 209.63 98.88 206.02 C 97.42 188.96 97.06 171.40 95.32 154.67 C 81.31 153.78 66.51 154.11 52.31 151.70 C 47.11 150.23 39.59 152.09 36.29 146.69 C 33.79 131.70 31.41 114.72 37.71 100.72 C 55.69 97.43 74.51 95.24 93.00 96.00 C 96.69 96.90 95.40 90.35 95.91 89.00 C 96.43 72.04 97.01 55.08 99.26 38.25 C 102.45 34.03 108.85 35.96 113.40 34.56 Z" />
<path fill="#f9f8f9" opacity="1.00" d=" M 0.00 135.43 C 2.55 146.59 3.45 158.30 8.12 168.90 C 23.74 213.03 66.26 244.73 112.43 250.00 L 0.00 250.00 L 0.00 135.43 Z" />
<path fill="#f9f8f9" opacity="1.00" d=" M 171.93 240.99 C 214.47 224.36 244.88 182.69 250.00 137.57 L 250.00 250.00 L 138.44 250.00 C 149.73 247.58 161.26 245.65 171.93 240.99 Z" />
</g>
<g id="#a2a4a9ff">
<path fill="#a2a4a9" opacity="1.00" d=" M 114.42 0.00 L 135.57 0.00 C 158.48 3.52 181.48 10.45 199.87 25.08 C 227.89 45.63 245.55 78.34 250.00 112.57 L 250.00 137.57 C 244.88 182.69 214.47 224.36 171.93 240.99 C 161.26 245.65 149.73 247.58 138.44 250.00 L 112.43 250.00 C 66.26 244.73 23.74 213.03 8.12 168.90 C 3.45 158.30 2.55 146.59 0.00 135.43 L 0.00 114.56 C 4.26 81.67 19.24 49.49 45.71 28.70 C 64.92 12.04 89.68 3.89 114.42 0.00 M 113.40 34.56 C 108.85 35.96 102.45 34.03 99.26 38.25 C 97.01 55.08 96.43 72.04 95.91 89.00 C 95.40 90.35 96.69 96.90 93.00 96.00 C 74.51 95.24 55.69 97.43 37.71 100.72 C 31.41 114.72 33.79 131.70 36.29 146.69 C 39.59 152.09 47.11 150.23 52.31 151.70 C 66.51 154.11 81.31 153.78 95.32 154.67 C 97.06 171.40 97.42 188.96 98.88 206.02 C 97.36 209.63 100.10 211.81 102.27 213.73 C 117.42 216.81 133.35 216.71 148.26 213.22 C 149.17 212.48 150.00 211.65 150.75 210.75 C 152.60 192.14 153.11 173.00 154.70 154.69 C 173.08 153.80 192.09 151.94 210.68 149.69 C 215.85 146.66 214.28 139.60 215.69 134.71 C 215.90 123.62 216.89 110.79 212.29 100.72 C 193.66 96.28 173.51 96.08 154.69 95.32 C 152.90 76.53 153.34 56.47 150.25 37.71 C 139.31 32.30 125.39 34.06 113.40 34.56 Z" />
</g>
</svg>

<?xml version="1.0" encoding="utf-8"?>
<!-- Generator: Adobe Illustrator 26.0.3, SVG Export Plug-In . SVG Version: 6.00 Build 0)  -->
<svg version="1.1" id="Layer_1" xmlns="http://www.w3.org/2000/svg" xmlns:xlink="http://www.w3.org/1999/xlink" x="0px" y="0px"
	 viewBox="0 0 250 250" style="enable-background:new 0 0 250 250;" xml:space="preserve">
<style type="text/css">
	.st0{fill:#F9F8F9;}
	.st1{fill:#A2A4A9;}
</style>
<g id="_x23_f9f8f9ff">
	<path class="st0" d="M113.4,34.6c12-0.5,25.9-2.3,36.8,3.1c3.1,18.8,2.6,38.8,4.4,57.6c18.8,0.8,39,1,57.6,5.4
		c4.6,10.1,3.6,22.9,3.4,34c-1.4,4.9,0.2,11.9-5,15c-18.6,2.2-37.6,4.1-56,5c-1.6,18.3-2.1,37.4-3.9,56.1c-0.8,0.9-1.6,1.7-2.5,2.5
		c-14.9,3.5-30.8,3.6-46,0.5c-2.2-1.9-4.9-4.1-3.4-7.7c-1.5-17.1-1.8-34.6-3.6-51.4c-14-0.9-28.8-0.6-43-3c-5.2-1.5-12.7,0.4-16-5
		c-2.5-15-4.9-32,1.4-46c18-3.3,36.8-5.5,55.3-4.7c3.7,0.9,2.4-5.7,2.9-7c0.5-17,1.1-33.9,3.3-50.8C102.4,34,108.8,36,113.4,34.6z"
		/>
</g>
<g id="_x23_a2a4a9ff">
	<path class="st1" d="M114.4,0h21.2c22.9,3.5,45.9,10.4,64.3,25.1c28,20.6,45.7,53.3,50.1,87.5v25c-5.1,45.1-35.5,86.8-78.1,103.4
		c-10.7,4.7-22.2,6.6-33.5,9h-26c-46.2-5.3-88.7-37-104.3-81.1c-4.7-10.6-5.6-22.3-8.1-33.5v-20.9c4.3-32.9,19.2-65.1,45.7-85.9
		C64.9,12,89.7,3.9,114.4,0 M113.4,34.6c-4.6,1.4-11-0.5-14.1,3.7C97,55.1,96.4,72,95.9,89c-0.5,1.3,0.8,7.9-2.9,7
		c-18.5-0.8-37.3,1.4-55.3,4.7c-6.3,14-3.9,31-1.4,46c3.3,5.4,10.8,3.5,16,5c14.2,2.4,29,2.1,43,3c1.7,16.7,2.1,34.3,3.6,51.4
		c-1.5,3.6,1.2,5.8,3.4,7.7c15.2,3.1,31.1,3,46-0.5c0.9-0.7,1.7-1.6,2.5-2.5c1.9-18.6,2.4-37.8,3.9-56.1c18.4-0.9,37.4-2.8,56-5
		c5.2-3,3.6-10.1,5-15c0.2-11.1,1.2-23.9-3.4-34c-18.6-4.4-38.8-4.6-57.6-5.4c-1.8-18.8-1.4-38.8-4.4-57.6
		C139.3,32.3,125.4,34.1,113.4,34.6z"/>
</g>
</svg>
